; generated by PrusaSlicer 2.8.1 on 2024-10-20 at 15:46:11 UTC


;
;
; 

; external perimeters extrusion width = 0.45mm
; perimeters extrusion width = 0.45mm
; infill extrusion width = 0.45mm
; solid infill extrusion width = 0.45mm
; top infill extrusion width = 0.40mm
; support material extrusion width = 0.35mm
; first layer extrusion width = 0.42mm

M73 P0 R89
M73 Q0 S90
M201 X1000 Y1000 Z200 E5000 ; sets maximum accelerations, mm/sec^2
M203 X200 Y200 Z12 E120 ; sets maximum feedrates, mm / sec
M204 S1250 T1250 ; sets acceleration (S) and retract acceleration (R), mm/sec^2
M205 X8.00 Y8.00 Z0.40 E4.50 ; sets the jerk limits, mm/sec
M205 S0 T0 ; sets the minimum extruding and travel feed rate, mm/sec

; printing object Merged id:0 copy 0
; stop printing object Merged id:0 copy 0

;TYPE:Custom
M862.3 P "MK3S" ; printer model check
M862.1 P0.4 ; nozzle diameter check
M115 U3.14.0 ; tell printer latest fw version
G90 ; use absolute coordinates
M83 ; extruder relative mode
M104 S240 ; set extruder temp
M140 S80 ; set bed temp
M190 S80 ; wait for bed temp
M109 S240 ; wait for extruder temp
G28 W ; home all without mesh bed level
G80 X79.0365 Y65.1221 W70.0933 H73.7558 ; mesh bed levelling

G1 Z0.2 F720
G1 Y-3 F1000 ; go outside print area
G92 E0
G1 X60 E9 F1000 ; intro line
G1 X100 E12.5 F1000 ; intro line

G92 E0
M221 S95

; Don't change E values below. Excessive value can damage the printer.
M907 E430 ; set extruder motor current
G21 ; set units to millimeters
G90 ; use absolute coordinates
M83 ; use relative distances for extrusion

M900 K0.04 ; Filament gcode LA 1.5
M900 K20 ; Filament gcode LA 1.0




M107
;LAYER_CHANGE
;Z:0.2
;HEIGHT:0.2
G1 E-.8 F2100
G1 Z1 F720
G1 X87.863 Y66.036 F10800
G1 Z.2 F720
G1 E.8 F2100
M204 S800
;TYPE:Skirt/Brim
;WIDTH:0.42
G1 F1200
G1 X89.488 Y65.312 E.05578
G1 X146.753 Y65.311 E1.7955
G1 X148.001 Y65.701 E.041
G1 X148.803 Y66.734 E.041
G1 X148.941 Y67.499 E.02437
G1 X148.941 Y136.499 E2.16345
G1 X148.55 Y137.747 E.04101
G1 X147.517 Y138.55 E.04102
G1 X146.753 Y138.688 E.02434
G1 X86.663 Y138.674 E1.88408
G1 X85.343 Y138.563 E.04153
M73 Q0 S89
G1 X83.782 Y138.118 E.05089
G1 X83.34 Y137.921 E.01517
G1 X81.969 Y137.052 E.05089
G1 X80.946 Y136.05 E.0449
G1 X80.493 Y135.44 E.02382
G1 X79.937 Y134.484 E.03468
G1 X79.57 Y133.551 E.03144
G1 X79.345 Y132.659 E.02884
G1 X79.239 Y131.82 E.02652
G1 X79.239 Y130.809 E.0317
G1 X87.317 Y67.225 E2.00966
G1 X87.838 Y66.09 E.03916
M204 S1000
;WIPE_START
G1 F8640
G1 X87.863 Y66.036 E-.01374
G1 X89.488 Y65.312 E-.41077
G1 X91.114 Y65.312 E-.37549
;WIPE_END
G1 Z1 F720
; printing object Merged id:0 copy 0
G1 X87.311 Y126.221 F10800
G1 Z.2 F720
G1 E.8 F2100
M204 S800
;TYPE:Support material
G1 F1200
G1 X87.848 Y126.309 E.01706
G1 X89.008 Y126.773 E.03917
G1 X89.008 Y135.853 E.2847
G1 X87.808 Y136.335 E.04055
G1 X86.675 Y136.485 E.03583
G1 X85.538 Y136.383 E.03579
G1 X84.45 Y136.034 E.03583
G1 X83.466 Y135.455 E.0358
G1 X82.688 Y134.726 E.03343
G1 X82.346 Y134.275 E.01775
G1 X81.974 Y133.683 E.02192
G1 X81.606 Y132.749 E.03148
G1 X81.414 Y131.575 E.0373
G1 X81.483 Y130.44 E.03565
G1 X81.606 Y129.88 E.01798
G1 X81.992 Y128.9 E.03302
G1 X82.633 Y127.955 E.0358
G1 X83.466 Y127.174 E.0358
G1 X84.45 Y126.595 E.0358
G1 X85.538 Y126.246 E.03583
G1 X86.647 Y126.146 E.03491
G1 X87.254 Y126.215 E.01915
M204 S1000
G1 X87.254 Y126.215 F10800
G1 X88.36 Y135.95
M204 S800
G1 F1200
G1 X88.36 Y126.86 E.28501
G1 X87.941 Y126.705 E.01401
G1 X87.941 Y135.924 E.28906
G1 X87.522 Y136.03 E.01355
G1 X87.522 Y126.6 E.29567
G1 X87.103 Y126.539 E.01328
G1 X87.103 Y136.086 E.29934
G1 X86.684 Y136.142 E.01325
G1 X86.684 Y126.492 E.30257
G1 X86.265 Y126.521 E.01317
G1 X86.265 Y136.108 E.30059
G1 X85.846 Y136.07 E.01319
G1 X85.846 Y126.559 E.29821
G1 X85.427 Y126.638 E.01337
G1 X85.427 Y135.991 E.29326
G1 X85.008 Y135.857 E.01379
G1 X85.008 Y126.772 E.28485
G1 X84.589 Y126.907 E.0138
G1 X84.589 Y135.722 E.27639
G1 X84.17 Y135.476 E.01523
G1 X84.17 Y127.153 E.26096
G1 X83.751 Y127.4 E.01525
G1 X83.751 Y135.229 E.24547
G1 X83.332 Y134.864 E.01742
M73 P0 R88
G1 X83.332 Y127.764 E.22262
G1 X82.913 Y128.157 E.01801
G1 X82.913 Y134.461 E.19766
G1 X82.494 Y133.874 E.02261
G1 X82.494 Y128.764 E.16022
G1 X82.075 Y129.614 E.02971
G1 X82.075 Y133.478 E.12115
M204 S1000
;WIPE_START
G1 F8640
G1 X82.075 Y130.014 E-.8
;WIPE_END
G1 Z1 F720
G1 X90.653 Y106.165 F10800
G1 Z.2 F720
G1 E.8 F2100
M204 S800
;TYPE:Perimeter
;WIDTH:0.419999
G1 F1200
G1 X145.589 Y106.163 E1.72248
G1 X145.589 Y120.75 E.45736
G1 X145.589 Y135.335 E.4573
G1 X90.653 Y135.337 E1.72248
G1 X90.653 Y106.225 E.91278
M204 S1000
G1 X90.653 Y106.225 F10800
G1 X90.275 Y105.788
M204 S800
G1 F1200
G1 X145.966 Y105.786 E1.74615
G1 X145.966 Y120.75 E.46918
G1 X145.966 Y135.712 E.46912
G1 X90.275 Y135.714 E1.74615
G1 X90.275 Y105.848 E.93643
M204 S1000
G1 X90.275 Y105.848 F10800
G1 X89.898 Y105.411
M204 S800
;TYPE:External perimeter
G1 F1200
G1 X146.343 Y105.409 E1.76979
G1 X146.343 Y120.75 E.48101
G1 X146.343 Y136.089 E.48094
G1 X89.898 Y136.091 E1.76979
G1 X89.898 Y105.471 E.96007
M73 P1 R88
M73 Q1 S89
M204 S1000
;WIPE_START
G1 F8640
G1 X89.898 Y105.411 E-.01385
G1 X93.303 Y105.411 E-.78615
;WIPE_END
G1 Z1 F720
G1 X145.419 Y107.098 F10800
G1 Z.2 F720
G1 E.8 F2100
M204 S800
;TYPE:Solid infill
;WIDTH:0.42143
G1 F1200
G1 X144.823 Y106.503 E.02651
G1 X144.288 Y106.503 E.01684
G1 X145.249 Y107.464 E.04277
G1 X145.249 Y107.999 E.01684
G1 X143.753 Y106.503 E.06659
G1 X143.217 Y106.503 E.01687
G1 X145.249 Y108.535 E.09044
G1 X145.249 Y109.07 E.01684
G1 X142.682 Y106.503 E.11426
G1 X142.147 Y106.503 E.01684
G1 X145.249 Y109.605 E.13807
G1 X145.249 Y110.14 E.01684
G1 X141.612 Y106.503 E.16188
G1 X141.076 Y106.503 E.01687
G1 X145.249 Y110.676 E.18574
G1 X145.249 Y111.211 E.01684
G1 X140.541 Y106.503 E.20955
G1 X140.006 Y106.503 E.01684
G1 X145.249 Y111.746 E.23337
G1 X145.249 Y112.282 E.01687
G1 X139.47 Y106.503 E.25722
G1 X138.935 Y106.503 E.01684
G1 X145.249 Y112.817 E.28104
G1 X145.249 Y113.352 E.01684
G1 X138.4 Y106.503 E.30485
G1 X137.865 Y106.503 E.01684
G1 X145.249 Y113.887 E.32866
G1 X145.249 Y114.423 E.01687
G1 X137.329 Y106.503 E.35252
G1 X136.794 Y106.503 E.01684
G1 X145.249 Y114.958 E.37633
G1 X145.249 Y115.493 E.01684
G1 X136.259 Y106.503 E.40014
G1 X135.724 Y106.503 E.01684
G1 X145.249 Y116.029 E.42398
G1 X145.249 Y116.564 E.01684
G1 X135.188 Y106.503 E.44781
G1 X134.653 Y106.503 E.01684
G1 X145.249 Y117.099 E.47163
G1 X145.249 Y117.635 E.01687
G1 X134.118 Y106.503 E.49546
G1 X133.582 Y106.503 E.01687
G1 X145.249 Y118.17 E.5193
G1 X145.249 Y118.705 E.01684
G1 X133.047 Y106.503 E.54311
G1 X132.512 Y106.503 E.01684
G1 X145.249 Y119.24 E.56692
G1 X145.249 Y119.776 E.01687
G1 X131.977 Y106.503 E.59076
G1 X131.441 Y106.503 E.01687
G1 X145.249 Y120.311 E.61459
G1 X145.249 Y120.846 E.01684
G1 X130.906 Y106.503 E.63841
G1 X130.371 Y106.503 E.01684
G1 X145.249 Y121.382 E.66224
G1 X145.249 Y121.917 E.01684
G1 X129.835 Y106.503 E.68608
G1 X129.3 Y106.503 E.01684
G1 X145.249 Y122.452 E.70989
G1 X145.249 Y122.987 E.01684
M73 Q1 S88
G1 X128.765 Y106.503 E.7337
G1 X128.23 Y106.503 E.01684
G1 X145.249 Y123.523 E.75754
G1 X145.249 Y124.058 E.01684
G1 X127.694 Y106.503 E.78137
G1 X127.159 Y106.503 E.01684
G1 X145.249 Y124.593 E.80518
G1 X145.249 Y125.129 E.01687
G1 X126.624 Y106.503 E.82902
G1 X126.089 Y106.503 E.01684
G1 X145.249 Y125.664 E.85283
G1 X145.249 Y126.199 E.01684
G1 X125.553 Y106.503 E.87667
G1 X125.018 Y106.503 E.01684
G1 X145.249 Y126.735 E.9005
G1 X145.249 Y127.27 E.01684
G1 X124.483 Y106.503 E.92431
G1 X123.947 Y106.503 E.01687
G1 X145.249 Y127.805 E.94815
G1 X145.249 Y128.34 E.01684
M73 P1 R87
G1 X123.412 Y106.503 E.97196
G1 X122.877 Y106.503 E.01684
G1 X145.249 Y128.876 E.9958
G1 X145.249 Y129.411 E.01684
G1 X122.342 Y106.503 E1.01961
G1 X121.806 Y106.503 E.01687
G1 X145.249 Y129.946 E1.04345
G1 X145.249 Y130.482 E.01687
G1 X121.271 Y106.503 E1.06728
G1 X120.736 Y106.503 E.01684
G1 X145.249 Y131.017 E1.09109
G1 X145.249 Y131.552 E.01684
G1 X120.2 Y106.503 E1.11493
G1 X119.665 Y106.503 E.01684
G1 X145.249 Y132.087 E1.13874
G1 X145.249 Y132.623 E.01687
G1 X119.13 Y106.503 E1.16258
G1 X118.595 Y106.504 E.01684
G1 X145.249 Y133.158 E1.18637
G1 X145.249 Y133.693 E.01684
M73 P2 R87
M73 Q2 S88
G1 X118.059 Y106.504 E1.2102
G1 X117.524 Y106.504 E.01684
G1 X145.249 Y134.229 E1.23404
G1 X145.249 Y134.764 E.01684
G1 X116.989 Y106.504 E1.25785
G1 X116.454 Y106.504 E.01684
G1 X144.946 Y134.996 E1.26818
G1 X144.41 Y134.996 E.01687
G1 X115.918 Y106.504 E1.26818
G1 X115.383 Y106.504 E.01684
G1 X143.875 Y134.996 E1.26818
G1 X143.34 Y134.996 E.01684
G1 X114.848 Y106.504 E1.26818
G1 X114.312 Y106.504 E.01687
G1 X142.805 Y134.996 E1.2682
G1 X142.269 Y134.996 E.01687
G1 X113.777 Y106.504 E1.26818
G1 X113.242 Y106.504 E.01684
G1 X141.734 Y134.996 E1.26818
G1 X141.199 Y134.996 E.01684
G1 X112.707 Y106.504 E1.26818
G1 X112.171 Y106.504 E.01687
G1 X140.663 Y134.996 E1.26818
G1 X140.128 Y134.996 E.01684
G1 X111.636 Y106.504 E1.26818
G1 X111.101 Y106.504 E.01684
G1 X139.593 Y134.996 E1.26818
G1 X139.058 Y134.996 E.01684
G1 X110.565 Y106.504 E1.2682
G1 X110.03 Y106.504 E.01684
M73 Q2 S87
G1 X138.522 Y134.996 E1.26818
G1 X137.987 Y134.996 E.01684
G1 X109.495 Y106.504 E1.26818
G1 X108.96 Y106.504 E.01684
G1 X137.452 Y134.996 E1.26818
G1 X136.916 Y134.996 E.01687
G1 X108.424 Y106.504 E1.26818
G1 X107.889 Y106.504 E.01684
G1 X136.381 Y134.996 E1.26818
G1 X135.846 Y134.996 E.01684
G1 X107.354 Y106.504 E1.26818
G1 X106.818 Y106.504 E.01687
M73 P2 R86
G1 X135.311 Y134.996 E1.2682
G1 X134.775 Y134.996 E.01687
G1 X106.283 Y106.504 E1.26818
G1 X105.748 Y106.504 E.01684
G1 X134.24 Y134.996 E1.26818
G1 X133.705 Y134.996 E.01684
G1 X105.213 Y106.504 E1.26818
G1 X104.677 Y106.504 E.01687
G1 X133.17 Y134.996 E1.2682
G1 X132.634 Y134.996 E.01687
M73 P3 R86
G1 X104.142 Y106.504 E1.26818
G1 X103.607 Y106.504 E.01684
M73 Q3 S87
G1 X132.099 Y134.996 E1.26818
G1 X131.564 Y134.996 E.01684
G1 X103.072 Y106.504 E1.26818
G1 X102.536 Y106.504 E.01687
G1 X131.028 Y134.996 E1.26818
G1 X130.493 Y134.996 E.01684
G1 X102.001 Y106.504 E1.26818
G1 X101.466 Y106.504 E.01684
G1 X129.958 Y134.996 E1.26818
G1 X129.423 Y134.996 E.01684
G1 X100.93 Y106.504 E1.2682
G1 X100.395 Y106.504 E.01684
G1 X128.887 Y134.996 E1.26818
G1 X128.352 Y134.996 E.01684
G1 X99.86 Y106.504 E1.26818
G1 X99.325 Y106.504 E.01684
G1 X127.817 Y134.996 E1.26818
G1 X127.281 Y134.996 E.01687
G1 X98.789 Y106.504 E1.26818
G1 X98.254 Y106.504 E.01684
G1 X126.746 Y134.996 E1.26818
G1 X126.211 Y134.996 E.01684
G1 X97.719 Y106.504 E1.26818
G1 X97.183 Y106.504 E.01687
G1 X125.676 Y134.996 E1.2682
G1 X125.14 Y134.996 E.01687
G1 X96.648 Y106.504 E1.26818
G1 X96.113 Y106.504 E.01684
G1 X124.605 Y134.996 E1.26818
G1 X124.07 Y134.996 E.01684
G1 X95.578 Y106.504 E1.26818
G1 X95.042 Y106.504 E.01687
G1 X123.535 Y134.996 E1.2682
G1 X122.999 Y134.996 E.01687
M73 Q3 S86
G1 X94.507 Y106.504 E1.26818
G1 X93.972 Y106.504 E.01684
G1 X122.464 Y134.996 E1.26818
G1 X121.929 Y134.996 E.01684
G1 X93.437 Y106.504 E1.26818
G1 X92.901 Y106.504 E.01687
G1 X121.393 Y134.996 E1.26818
G1 X120.858 Y134.996 E.01684
G1 X92.366 Y106.504 E1.26818
G1 X91.831 Y106.504 E.01684
G1 X120.323 Y134.996 E1.26818
G1 X119.788 Y134.996 E.01684
M73 P3 R85
G1 X91.295 Y106.504 E1.2682
G1 X90.992 Y106.504 E.00954
G1 X90.992 Y106.736 E.0073
G1 X119.252 Y134.996 E1.25785
G1 X118.717 Y134.996 E.01684
G1 X90.992 Y107.271 E1.23404
G1 X90.992 Y107.807 E.01687
M73 P4 R85
M73 Q4 S86
G1 X118.182 Y134.996 E1.2102
G1 X117.646 Y134.996 E.01687
G1 X90.992 Y108.342 E1.18637
G1 X90.992 Y108.877 E.01684
G1 X117.111 Y134.997 E1.16258
G1 X116.576 Y134.997 E.01684
G1 X90.992 Y109.413 E1.13874
G1 X90.992 Y109.948 E.01684
G1 X116.041 Y134.997 E1.11493
G1 X115.505 Y134.997 E.01687
G1 X90.992 Y110.483 E1.09109
G1 X90.992 Y111.018 E.01684
G1 X114.97 Y134.997 E1.06728
G1 X114.435 Y134.997 E.01684
G1 X90.992 Y111.554 E1.04345
G1 X90.992 Y112.089 E.01684
G1 X113.899 Y134.997 E1.01961
G1 X113.364 Y134.997 E.01684
G1 X90.992 Y112.624 E.9958
G1 X90.992 Y113.16 E.01687
G1 X112.829 Y134.997 E.97196
G1 X112.294 Y134.997 E.01684
G1 X90.992 Y113.695 E.94815
G1 X90.992 Y114.23 E.01684
G1 X111.758 Y134.997 E.92431
G1 X111.223 Y134.997 E.01684
G1 X90.992 Y114.765 E.9005
G1 X90.992 Y115.301 E.01687
G1 X110.688 Y134.997 E.87667
G1 X110.153 Y134.997 E.01684
G1 X90.992 Y115.836 E.85285
G1 X90.992 Y116.371 E.01684
G1 X109.617 Y134.997 E.82902
G1 X109.082 Y134.997 E.01684
G1 X90.992 Y116.907 E.80518
G1 X90.992 Y117.442 E.01684
G1 X108.547 Y134.997 E.78137
G1 X108.011 Y134.997 E.01687
G1 X90.992 Y117.977 E.75754
G1 X90.992 Y118.513 E.01687
G1 X107.476 Y134.997 E.7337
G1 X106.941 Y134.997 E.01684
G1 X90.992 Y119.048 E.70989
G1 X90.992 Y119.583 E.01684
G1 X106.406 Y134.997 E.68608
G1 X105.87 Y134.997 E.01687
G1 X90.992 Y120.118 E.66224
G1 X90.992 Y120.654 E.01687
G1 X105.335 Y134.997 E.63841
G1 X104.8 Y134.997 E.01684
G1 X90.992 Y121.189 E.61459
G1 X90.992 Y121.724 E.01684
G1 X104.264 Y134.997 E.59076
G1 X103.729 Y134.997 E.01684
G1 X90.992 Y122.26 E.56692
G1 X90.992 Y122.795 E.01684
M73 Q4 S85
G1 X103.194 Y134.997 E.54311
G1 X102.659 Y134.997 E.01684
G1 X90.992 Y123.33 E.5193
G1 X90.992 Y123.865 E.01684
G1 X102.123 Y134.997 E.49546
G1 X101.588 Y134.997 E.01684
G1 X90.992 Y124.401 E.47163
G1 X90.992 Y124.936 E.01684
G1 X101.053 Y134.997 E.44781
G1 X100.518 Y134.997 E.01684
G1 X90.992 Y125.471 E.424
G1 X90.992 Y126.007 E.01687
G1 X99.982 Y134.997 E.40014
G1 X99.447 Y134.997 E.01684
G1 X90.992 Y126.542 E.37633
G1 X90.992 Y127.077 E.01684
G1 X98.912 Y134.997 E.35252
G1 X98.376 Y134.997 E.01687
G1 X90.992 Y127.613 E.32866
G1 X90.992 Y128.148 E.01684
G1 X97.841 Y134.997 E.30485
G1 X97.306 Y134.997 E.01684
G1 X90.992 Y128.683 E.28104
G1 X90.992 Y129.218 E.01684
G1 X96.771 Y134.997 E.25722
G1 X96.235 Y134.997 E.01687
G1 X90.992 Y129.754 E.23337
G1 X90.992 Y130.289 E.01684
G1 X95.7 Y134.997 E.20955
G1 X95.165 Y134.997 E.01684
G1 X90.992 Y130.824 E.18574
G1 X90.992 Y131.36 E.01687
G1 X94.629 Y134.997 E.16188
G1 X94.094 Y134.997 E.01684
G1 X90.992 Y131.895 E.13807
G1 X90.992 Y132.43 E.01684
G1 X93.559 Y134.997 E.11426
G1 X93.024 Y134.997 E.01684
G1 X90.992 Y132.965 E.09044
G1 X90.992 Y133.501 E.01687
G1 X92.488 Y134.997 E.06659
G1 X91.953 Y134.997 E.01684
G1 X90.992 Y134.036 E.04277
G1 X90.992 Y134.571 E.01684
G1 X91.587 Y135.167 E.02651
M204 S1000
;WIPE_START
G1 F8640
G1 X90.992 Y134.571 E-.19446
G1 X90.992 Y134.036 E-.12353
G1 X91.953 Y134.997 E-.31381
M73 P5 R85
G1 X92.488 Y134.997 E-.12353
G1 X92.351 Y134.86 E-.04467
;WIPE_END
G1 Z1 F720
G1 X145.589 Y97.835 F10800
G1 Z.2 F720
M73 P5 R84
G1 E.8 F2100
M204 S800
;TYPE:Perimeter
;WIDTH:0.419999
G1 F1200
G1 X90.653 Y97.837 E1.72248
G1 X90.653 Y68.665 E.91467
M73 Q5 S85
G1 X145.589 Y68.663 E1.72248
G1 X145.589 Y83.25 E.45736
G1 X145.589 Y97.775 E.45542
M204 S1000
G1 X145.589 Y97.775 F10800
G1 X145.966 Y98.212
M204 S800
G1 F1200
G1 X90.275 Y98.214 E1.74615
G1 X90.275 Y68.288 E.93831
G1 X145.966 Y68.286 E1.74615
G1 X145.966 Y83.25 E.46918
G1 X145.966 Y98.152 E.46724
M204 S1000
G1 X145.966 Y98.152 F10800
G1 X146.343 Y98.589
M204 S800
;TYPE:External perimeter
G1 F1200
G1 X89.898 Y98.591 E1.76979
G1 X89.898 Y67.911 E.96195
G1 X146.343 Y67.909 E1.76979
G1 X146.343 Y83.25 E.48101
G1 X146.343 Y98.529 E.47906
M204 S1000
;WIPE_START
G1 F8640
G1 X146.343 Y98.589 E-.01385
G1 X142.938 Y98.589 E-.78615
;WIPE_END
G1 Z1 F720
G1 X144.654 Y68.833 F10800
G1 Z.2 F720
G1 E.8 F2100
M204 S800
;TYPE:Solid infill
;WIDTH:0.42143
G1 F1200
G1 X145.249 Y69.429 E.02651
G1 X145.249 Y69.964 E.01684
G1 X144.288 Y69.003 E.04277
G1 X143.753 Y69.003 E.01684
G1 X145.249 Y70.499 E.06659
G1 X145.249 Y71.035 E.01687
G1 X143.217 Y69.003 E.09044
G1 X142.682 Y69.003 E.01684
G1 X145.249 Y71.57 E.11426
G1 X145.249 Y72.105 E.01684
G1 X142.147 Y69.003 E.13807
G1 X141.612 Y69.003 E.01684
G1 X145.249 Y72.64 E.16188
G1 X145.249 Y73.176 E.01687
G1 X141.076 Y69.003 E.18574
G1 X140.541 Y69.003 E.01684
G1 X145.249 Y73.711 E.20955
G1 X145.249 Y74.246 E.01684
G1 X140.006 Y69.003 E.23337
G1 X139.47 Y69.003 E.01687
